src/components/00-materials/images-raw/Within 1 HRS.svg

<svg width="96" height="96" viewBox="0 0 96 96" fill="none" xmlns="http://www.w3.org/2000/svg">
<path d="M46.99 20.9399L46.96 27.9399M46.79 67.9399L46.76 74.9399M26.88 47.8599L19.88 47.8199M73.87 48.0599L66.87 48.0299M72.01 17.0499L71.97 26.0499L62.97 26.0199M27.96 28.8599L28.95 29.8599M27.79 66.8599L28.8 65.8599M65.79 67.0299L64.8 66.0199M22.1 37.5499L23.4 38.0999M36.48 72.7199L37.03 71.4199M71.65 58.3399L70.35 57.7899M36.7 23.0699L37.24 24.3799M22.01 58.1199L23.31 57.5799M57.05 72.8099L56.51 71.5099M52 55.9999H42M71.56 26.0499C65.9881 19.7842 58.2401 15.8744 49.8898 15.1148C41.5394 14.3552 33.2131 16.8026 26.602 21.96C19.991 27.1175 15.5911 34.5981 14.2961 42.8822C13.001 51.1664 14.908 59.6329 19.6296 66.5619C24.3512 73.4909 31.5334 78.3628 39.7172 80.1879C47.9009 82.0129 56.4726 80.6543 63.6908 76.3881C70.9091 72.1218 76.2328 65.2678 78.5803 57.2183C80.9278 49.1688 80.1233 40.5276 76.33 33.0499L71.56 26.0499Z" stroke="#00008F" stroke-width="2" stroke-linecap="round" stroke-linejoin="round"/>
<path d="M47 56V38L42 42" stroke="#00008F" stroke-width="2" stroke-linecap="round" stroke-linejoin="round"/>
</svg>

<svg width="96" height="96" viewBox="0 0 96 96" fill="none" xmlns="http://www.w3.org/2000/svg"><path d="M46.99 20.94l-.03 7m-.17 40l-.03 7M26.88 47.86l-7-.04m53.99.24l-7-.03m5.14-30.98l-.04 9-9-.03m-35.01 2.84l.99 1m-1.16 37l1.01-1m36.99 1.17l-.99-1.01M22.1 37.55l1.3.55m13.08 34.62l.55-1.3m34.62-13.08l-1.3-.55M36.7 23.07l.54 1.31M22.01 58.12l1.3-.54m33.74 15.23l-.54-1.3M52 56H42m29.56-29.95a33 33 0 104.77 7l-4.77-7z" stroke="#00008F" stroke-width="2" stroke-linecap="round" stroke-linejoin="round"/><path d="M47 56V38l-5 4" stroke="#00008F" stroke-width="2" stroke-linecap="round" stroke-linejoin="round"/></svg>
